panorama.svg

<svg fill="currentColor" viewBox="0 0 24 24"><path d="m8.5 12.5 2.5 3 3.5-4.5 4.5 6H5m18 1V6a2 2 0 0 0-2-2H3a2 2 0 0 0-2 2v12a2 2 0 0 0 2 2h18a2 2 0 0 0 2-2"/></svg>

<svg  viewBox="0 0 24 24" fill="currentColor"><path  d="M8.5,12.5L11,15.5L14.5,11L19,17H5M23,18V6A2,2 0 0,0 21,4H3A2,2 0 0,0 1,6V18A2,2 0 0,0 3,20H21A2,2 0 0,0 23,18Z"/></svg>
